icons/extensions/bmp.svg

<?xml version="1.0" encoding="UTF-8"?>
<svg width="42px" height="42px" viewBox="0 0 42 42" version="1.1" xmlns="http://www.w3.org/2000/svg" xmlns:xlink="http://www.w3.org/1999/xlink">
    <!-- Generator: Sketch 44.1 (41455) - http://www.bohemiancoding.com/sketch -->
    <desc>Created with Sketch.</desc>
    <defs>
        <path d="M0,2.00494659 C0,0.897645164 0.889763236,0 2.00359486,0 L24.004543,0 C24.5543187,0 25.3127724,0.312772393 25.7057732,0.70577316 L29.2942268,4.29422684 C29.6840146,4.68401459 30,5.45092539 30,5.99477117 L30,22.0025781 C30,23.1057238 29.1021596,24 28.008383,24 L1.99161703,24 C0.891677316,24 0,23.1029738 0,21.9950534 L0,2.00494659 Z" id="path-1"></path>
    </defs>
    <g id="扩展名-(icons/extensions-5-10)" stroke="none" stroke-width="1" fill="none" fill-rule="evenodd">
        <g id="图片">
            <g id="Group" transform="translate(6.000000, 9.000000)">
                <g id="Mask">
                    <use fill="#121212" fill-rule="evenodd" xlink:href="#path-1"></use>
                    <path stroke="#50A969" stroke-width="2" d="M1,2.00494659 L1,21.9950534 C1,22.5519156 1.44520033,23 1.99161703,23 L28.008383,23 C28.5518298,23 29,22.5514822 29,22.0025781 L29,5.99477117 C29,5.71418799 28.7879905,5.20220404 28.5871201,5.00133362 L24.9986664,1.41287994 C24.7943372,1.20855074 24.2907084,1 24.004543,1 L2.00359486,1 C1.44527569,1 1,1.44669671 1,2.00494659 Z"></path>
                </g>
                <path d="M1,16.5 L7.31606527,9.73278721 C7.69379199,9.32808001 8.29400889,9.33321007 8.66557497,9.7543183 L15.5,17.5 L21.5848722,14.8921976 C22.0902833,14.6755929 22.868092,14.7548329 23.3232295,15.0699281 L29,19 L29,23 L1,23 L1,16.5 Z" id="Path-2" fill="#50A969"></path>
                <circle id="Oval" fill="#50A969" cx="19.5" cy="7.5" r="2.5"></circle>
            </g>
        </g>
    </g>
</svg>

<svg viewBox="0 0 42 42" xmlns="http://www.w3.org/2000/svg" xmlns:xlink="http://www.w3.org/1999/xlink"><defs><path d="M0 2.005A2 2 0 0 1 2.004 0h22c.55 0 1.309.313 1.702.706l3.588 3.588c.39.39.706 1.157.706 1.7v16.009A1.998 1.998 0 0 1 28.008 24H1.992C.892 24 0 23.103 0 21.995V2.005z" id="a"/></defs><g transform="translate(6 9)" fill="none" fill-rule="evenodd"><use fill="#121212" xlink:href="#a"/><path stroke="#50A969" stroke-width="2" d="M1 2.005v19.99A.998.998 0 0 0 1.992 23h26.016a.999.999 0 0 0 .992-.997V5.995c0-.28-.212-.793-.413-.994L25 1.413C24.794 1.209 24.29 1 24.005 1H2.004A1 1 0 0 0 1 2.005z"/><path d="M1 16.5l6.316-6.767a.89.89 0 0 1 1.35.021L15.5 17.5l6.085-2.608c.505-.216 1.283-.137 1.738.178L29 19v4H1v-6.5z" fill="#50A969"/><circle fill="#50A969" cx="19.5" cy="7.5" r="2.5"/></g></svg>
